X: 1
T: Dickey Dwindle  [C]
R: jig
Z: 2011 John Chambers <jc:trillian.mit.edu>
S: printed MS of unknown origin
M: 6/8
L: 1/8
K: C
"A"|:\
"C"c2c g2g | ede cde | "F"f2f a2a | "G7"fef def |\
"C"ede cde | "G7"fef def | "C"gag gfe | "C"e3 "G7"d3 :|
"B1"[|\
"G7"def fed | "C"efg g3 | "G7"def fed | "C"efg g3 |\
"F"a2a "C"g2g | "Dm"f2f "Am"efg | "F"agf edc | "G7"Bcd G3 |]
"B2"[|\
"C"c2c g2g | ede cde | "F"f2f a2a | "G7"fef def |\
"C"ede cde | "F"fga abc' | "C"gec "G7"fdB | "C"c3- c3 |]
